F[BALLADE
CUT[Waise und Stiefmutter
    Regina ging in Garte]
CNR[go breche Roeseli ab]
REG[Mitteleuropa, Schweiz]
SRC[5, S. 299
    ????]
KEY[Q1116D 16  G 6/8]
MEL[-5_  1__-3_-6__-5_  -5_-4_0__.
    -4_  2__-4_-6__-5-5  -3__.^__
    -5_  3__2_1__-7_  -7_-6_0__.
    -6_  -5__-51-7_-6_-7_  1__.^__
    -5_  3__2_1__-7_  -7_-6_0__.
    -6_  -5__-511_-6_-7_  1__.^__ //] >>
FCT[???]
CMT[Melodievergleich zu Q0116, anderes Lied.]
